X: 10461
M: C|
L: 1/16
K: Eb
uE2 |\
(.f3.d) (ed)cB e6 :| ug2 | (.f3.g)(.B3.g) (.e3.g)(.b3.g) | (.a3.g)f3e dB3B3g |
(.e3.g)(.B3.g) (ef)ga (.b3.g) | (.a3.f) (ed)cB e4 (e3g) | g3eBG3
f3BGE3 | A3(G"_>"F3)uE DB,3B,4 | (G,E3)E3A Ge3Bg3 | (.f3.d) "_D.C."(ed)cB "_Segue Reel."e6 |]


